Numix-GalliumOS/32/categories/preferences-composer.svg

<?xml version="1.0" encoding="UTF-8" standalone="no"?>
<svg
   xmlns:dc="http://purl.org/dc/elements/1.1/"
   xmlns:cc="http://creativecommons.org/ns#"
   xmlns:rdf="http://www.w3.org/1999/02/22-rdf-syntax-ns#"
   xmlns:svg="http://www.w3.org/2000/svg"
   xmlns="http://www.w3.org/2000/svg"
   xmlns:sodipodi="http://sodipodi.sourceforge.net/DTD/sodipodi-0.dtd"
   xmlns:inkscape="http://www.inkscape.org/namespaces/inkscape"
   width="32"
   height="32"
   viewBox="0 0 32 32"
   id="svg2"
   version="1.1"
   inkscape:version="0.91 r"
   sodipodi:docname="preferences-composer.svg">
  <metadata
     id="metadata10">
    <rdf:RDF>
      <cc:Work
         rdf:about="">
        <dc:format>image/svg+xml</dc:format>
        <dc:type
           rdf:resource="http://purl.org/dc/dcmitype/StillImage" />
        <dc:title />
      </cc:Work>
    </rdf:RDF>
  </metadata>
  <defs
     id="defs8" />
  <sodipodi:namedview
     pagecolor="#ffffff"
     bordercolor="#666666"
     borderopacity="1"
     objecttolerance="10"
     gridtolerance="10"
     guidetolerance="10"
     inkscape:pageopacity="0"
     inkscape:pageshadow="2"
     inkscape:window-width="1920"
     inkscape:window-height="1056"
     id="namedview6"
     showgrid="true"
     inkscape:zoom="20.85965"
     inkscape:cx="10.589072"
     inkscape:cy="17.630726"
     inkscape:window-x="0"
     inkscape:window-y="24"
     inkscape:window-maximized="1"
     inkscape:current-layer="svg2">
    <inkscape:grid
       type="xygrid"
       id="grid4138" />
  </sodipodi:namedview>
  <path
     style="fill:#9ddee4;fill-opacity:1"
     d="M 10.346297,6 C 10.346297,6 9,6 9,7.332031 L 9,24.667969 C 9,26 10.27171,26 10.27171,26 l 11.45658,0 C 23,26 23,24.667969 23,24.667969 l 0,-16 L 20.45658,6 10.27171,6 Z M 11,8 l 6,0 0,4 4,0 0,12 -10,0 z"
     id="path4"
     inkscape:connector-curvature="0"
     sodipodi:nodetypes="csscscccccccccccc" />
  <path
     style="fill:#9ddee4;fill-opacity:1;fill-rule:evenodd;stroke:none;stroke-width:1px;stroke-linecap:butt;stroke-linejoin:miter;stroke-opacity:1"
     d="M 27.627119,7.9999986 30,10.37288 19.559322,20.813559 16,22 17.186441,18.440678 Z"
     id="path4168"
     inkscape:connector-curvature="0"
     sodipodi:nodetypes="cccccc" />
</svg>

<svg xmlns="http://www.w3.org/2000/svg" viewBox="0 0 32 32">
 <path d="m 10.346 6 c 0 0 -1.346 0 -1.346 1.332 l 0 17.336 c 0 1.332 1.272 1.332 1.272 1.332 l 11.457 0 c 1.272 0 1.272 -1.332 1.272 -1.332 l 0 -16 l -2.543 -2.668 -10.185 0 m 0.728 2 l 6 0 0 4 4 0 0 12 -10 0 z" style="fill:#9ddee4;fill-opacity:1"/>
 <path d="m 27.627 8 2.373 2.373 -10.441 10.441 -3.559 1.186 1.186 -3.559" style="fill:#9ddee4;fill-opacity:1;stroke:none;fill-rule:evenodd"/>
</svg>
